package/converter/svg/thin/train.svg

<svg xmlns="http://www.w3.org/2000/svg" viewBox="0 0 448 512"><!-- Font Awesome Pro 6.0.0-alpha2 by @fontawesome - https://fontawesome.com License - https://fontawesome.com/license (Commercial License) --><path d="M352 0H96C42.98 0 0 42.98 0 96V352C0 401.5 37.605 441.77 85.725 446.963L34.344 498.344C31.219 501.469 31.219 506.531 34.344 509.656C35.906 511.219 37.953 512 40 512S44.094 511.219 45.656 509.656L107.312 448H340.688L402.344 509.656C403.906 511.219 405.953 512 408 512S412.094 511.219 413.656 509.656C416.781 506.531 416.781 501.469 413.656 498.344L362.275 446.963C410.395 441.77 448 401.5 448 352V96C448 42.98 405.02 0 352 0ZM432 352C432 396.111 396.113 432 352 432H96C51.889 432 16 396.111 16 352V96C16 51.887 51.889 16 96 16H352C396.113 16 432 51.887 432 96V352ZM352 64H96C78.328 64 64 78.326 64 96V192C64 209.672 78.328 224 96 224H352C369.674 224 384 209.672 384 192V96C384 78.326 369.674 64 352 64ZM368 192C368 200.822 360.822 208 352 208H96C87.178 208 80 200.822 80 192V96C80 87.178 87.178 80 96 80H352C360.822 80 368 87.178 368 96V192ZM224 272C197.49 272 176 293.49 176 320S197.49 368 224 368S272 346.51 272 320S250.51 272 224 272ZM224 352C206.355 352 192 337.645 192 320S206.355 288 224 288S256 302.355 256 320S241.645 352 224 352Z"/></svg>

<svg xmlns="http://www.w3.org/2000/svg" viewBox="0 0 448 512"><!--! Font Awesome Pro 6.6.0 by @fontawesome - https://fontawesome.com License - https://fontawesome.com/license (Commercial License) Copyright 2024 Fonticons, Inc. --><path d="M352 16c44.2 0 80 35.8 80 80l0 256c0 44.2-35.8 80-80 80L96 432c-44.2 0-80-35.8-80-80L16 96c0-44.2 35.8-80 80-80l256 0zM96 0C43 0 0 43 0 96L0 352c0 49.4 37.3 90.1 85.3 95.4L34.3 498.3c-3.1 3.1-3.1 8.2 0 11.3s8.2 3.1 11.3 0L107.3 448l233.4 0 61.7 61.7c3.1 3.1 8.2 3.1 11.3 0s3.1-8.2 0-11.3l-50.9-50.9c48-5.3 85.3-46 85.3-95.4l0-256c0-53-43-96-96-96L96 0zM272 320a48 48 0 1 0 -96 0 48 48 0 1 0 96 0zm-48-32a32 32 0 1 1 0 64 32 32 0 1 1 0-64zM96 80l256 0c8.8 0 16 7.2 16 16l0 96c0 8.8-7.2 16-16 16L96 208c-8.8 0-16-7.2-16-16l0-96c0-8.8 7.2-16 16-16zM64 96l0 96c0 17.7 14.3 32 32 32l256 0c17.7 0 32-14.3 32-32l0-96c0-17.7-14.3-32-32-32L96 64C78.3 64 64 78.3 64 96z"/></svg>
